X: 37
T: The Foxhunter
B: begged borrowed and stolen
M:9/8
L:1/8
R: slip jig
Q: 3/8=100
K:Dmajor
V:1 
|:"D"(FGF)F2D"Em"G2E|"D"(FGF)F2D"A"E2D|"D"(FGF)F2D"G"G2B|"D"(AFD) DEF"A"E2D:|
 |:"Em"B3 (BAG) (FGA)|B2E E2F G2B|"D"(AB^c)"Bm"(dcB)"A"(ABc)|"D"d2D DEF E2D:|
 |:"D"(fgf)f2d"Em"g2e|"D"(fgf)f2d"A"e2"D"d|(fgf)f2d"G"g2b|"D"(afd) def"A"e2"D"d:|
 |:"Em"(gfe) (d=cB) (AGF)|B2E E2F G2B|"D"(AB^c) "Bm"(dcB) "A"(ABc)|"D"d2D DEF E2D:|
% abcbook-tune_id 62828a3aea3ab1477f9f598f


% abcbook-boost 0
% abcbook-tablature 
% abcbook-transpose 
% abcbook-lastupdated 1652725431067
% abcbook-soundfonts 
% abcbook-repeats 3
% abc-sessionorg_id 482
% abc-sessionorg_setting 0
% abc-sessionorg_setting_id 13386
% abc-boost 0

